src/pos-icons/skip-previous-outline.svg

<svg height="24" viewBox="0 0 24 24" width="24" xmlns="http://www.w3.org/2000/svg"><path d="m6 6h2v12h-2m3.5-6 8.5 6v-12m-2 8.14-3.03-2.14 3.03-2.14z"/></svg>

<?xml version="1.0" encoding="UTF-8"?><!DOCTYPE svg PUBLIC "-//W3C//DTD SVG 1.1//EN" "http://www.w3.org/Graphics/SVG/1.1/DTD/svg11.dtd"><svg xmlns="http://www.w3.org/2000/svg" xmlns:xlink="http://www.w3.org/1999/xlink" version="1.1" id="mdi-skip-previous-outline" width="24" height="24" viewBox="0 0 24 24"><path d="M6,6H8V18H6M9.5,12L18,18V6M16,14.14L12.97,12L16,9.86V14.14Z" /></svg>
